X: 1
T: Modal Anorak, The
M: 6/8
L: 1/8
R: jig
K: Edor
E^GB e=fe|d=c/B/A B=FE|~D3 ADc|dDD =FED|
E^GB e=fe|d=c/B/A Bfg|afg e2c|dDD =FED:|
|:B,EE E2D|EBB cAG|=FDD A,DD|=FGA def|
e2g a_bg|=fed e=cA|B=cd e=fe|dDD =FED:|
